Catalina-light/actions/16/go-bottom-symbolic.svg

<?xml version="1.0" encoding="UTF-8" standalone="no"?>
<svg
   xmlns:dc="http://purl.org/dc/elements/1.1/"
   xmlns:cc="http://creativecommons.org/ns#"
   xmlns:rdf="http://www.w3.org/1999/02/22-rdf-syntax-ns#"
   xmlns:svg="http://www.w3.org/2000/svg"
   xmlns="http://www.w3.org/2000/svg"
   xmlns:sodipodi="http://sodipodi.sourceforge.net/DTD/sodipodi-0.dtd"
   xmlns:inkscape="http://www.inkscape.org/namespaces/inkscape"
   viewBox="0 0 16 16"
   id="svg2"
   version="1.1"
   inkscape:version="0.91 r13725"
   sodipodi:docname="go-bottom-symbolic.svg">
  <metadata
     id="metadata10">
    <rdf:RDF>
      <cc:Work
         rdf:about="">
        <dc:format>image/svg+xml</dc:format>
        <dc:type
           rdf:resource="http://purl.org/dc/dcmitype/StillImage" />
      </cc:Work>
    </rdf:RDF>
  </metadata>
  <sodipodi:namedview
     pagecolor="#ffffff"
     bordercolor="#666666"
     borderopacity="1"
     objecttolerance="10"
     gridtolerance="10"
     guidetolerance="10"
     inkscape:pageopacity="0"
     inkscape:pageshadow="2"
     inkscape:window-width="640"
     inkscape:window-height="480"
     id="namedview8"
     showgrid="false"
     inkscape:zoom="39.8125"
     inkscape:cx="5.0863422"
     inkscape:cy="8"
     inkscape:current-layer="svg2" />
  <defs
     id="defs3051">
    <style
       type="text/css"
       id="current-color-scheme">
      .ColorScheme-Text {
        color:#bebebe;
      }
      </style>
  </defs>
  <path
     style="color:#bebebe;fill:currentColor;fill-opacity:1;stroke:none"
     class="ColorScheme-Text"
     d="m 13.156159,3.0706338 c -0.215054,7.77e-4 -0.430218,0.083408 -0.593733,0.2480396 L 8.0137316,7.9005699 3.4318351,3.3518755 C 3.1025948,3.0249782 2.5712704,3.0265184 2.24437,3.3557817 1.9171796,3.685025 1.9186159,4.2181704 2.2482762,4.5451998 L 7.4258581,9.685674 C 7.5904934,9.849095 7.8064601,9.930585 8.0215438,9.929807 8.2365175,9.92903 8.4517412,9.846397 8.6152763,9.681768 L 13.75575,4.5022324 C 14.08278,4.1728301 14.081344,3.6416647 13.751844,3.3147673 13.587199,3.1513191 13.371213,3.069856 13.156159,3.0706338 Z M 8.0000601,11.000088 A 1.4999558,1.4999558 0 0 0 6.5001042,12.500044 1.4999558,1.4999558 0 0 0 8.0000601,14 1.4999558,1.4999558 0 0 0 9.5000158,12.500044 1.4999558,1.4999558 0 0 0 8.0000601,11.000088 Z"
     id="path6"
     inkscape:connector-curvature="0" />
</svg>

<svg version="1.1" viewBox="0 0 16 16" xmlns="http://www.w3.org/2000/svg">
<defs>
<style id="current-color-scheme" type="text/css">.ColorScheme-Text {
        color:#bebebe;
      }</style>
</defs>
<path class="ColorScheme-Text" d="m13.156 3.0706c-0.21505 7.77e-4 -0.43022 0.083408-0.59373 0.24804l-4.5487 4.5819-4.5819-4.5487c-0.32924-0.3269-0.86056-0.32536-1.1875 0.0039062-0.32719 0.32924-0.32575 0.86239 0.0039062 1.1894l5.1776 5.1405c0.16464 0.16342 0.3806 0.24491 0.59569 0.24413 0.21497-7.77e-4 0.4302-0.08341 0.59373-0.24804l5.1405-5.1795c0.32703-0.3294 0.32559-0.86057-0.003906-1.1875-0.16464-0.16345-0.38063-0.24491-0.59568-0.24413zm-5.1561 7.9295a1.5 1.5 0 0 0-1.5 1.5 1.5 1.5 0 0 0 1.5 1.5 1.5 1.5 0 0 0 1.5-1.5 1.5 1.5 0 0 0-1.5-1.5z" color="#bebebe" fill="currentColor"/>
</svg>
